X: 4142
T: Nathaniel Gow's Lament for Mrs Oswald of Auchincruive
C: by Nath Gow
%R: lament, strathspey
N: This is version 2, for ABC software that understands crescendo symbols.
U: p=!crescendo(!
U: P=!crescendo)!
N: The crescendo in bar 7 seems to apply only to the bass line (V:2).
B: Niel Gow & Sons "A Fourth Collection of Strathspey Reels, etc." v.4 p.14 #2
Z: 2022 John Chambers <jc:trillian.mit.edu>
M: C
L: 1/16
Q: "Slow with Expression"
K: Cm
% - - - - - - - - - -
V: 1 staves=2
C2 |\
B3F(E2D2) C4 (c2d2) | e2dc (=B2c2) G4 "_sf"c3_B | (A2G2)(F2E2) (D3E/F/) (E2C2) | E6 (FE) [D4=B,4] G4 ||\
(e2d2)(c2=B2) c4 d3e | (f2e2)(d2c2) {c}=B6 G2 | (c2g2)f2e2 (d2c2)=B2c2 | e4 Td3c c6 :|
|: c2 |\
g2e2f2g2 ~e6 f2 | e4 Td3c c6 g2 | a2f2g2a2 g3(a/g/) f2e2 | e6 (fe) d6 G2 ||\
(Tc2e2d3)G (d2f2e3)G | (e2g2)(f2a2) {a}g6 f2 | e2c2 (fgaf) e4 Td4 | [c12G12E12] :|
% - - - - - - - - - -
% Voice 2 preserves the staff layout in the book.
V: 2 clef=bass middle=d
z2 |\
c4G4 C4z4 | c4g4 e4"_sf"=e4 | f2g2a4- a6^f2 | g4G4 g2f2e2d2 ||\
c4g2f2 e4z4 | f2g2a4 g4G4 | z2e2pf2g2 Pa8 | g4G4 c6 :|
|: z2 |\
c'4g4 c4a4 | g4G4 c4z4 | f4f4 e4f2^f2 | g4G4 g2f2e2d2 ||\
c4z4 [g4G4]z4 | c'4d'4 e'4d'4 | c'4a4 g4G4 | c4G4 C4 :|


